img/arrow-select.svg

<svg fill="none" height="800" viewBox="0 0 24 24" width="800" xmlns="http://www.w3.org/2000/svg">
    <path clip-rule="evenodd"
          d="m4.43057 8.51192c.26957-.31449.74304-.35092 1.05754-.08135l6.51189 5.58163 6.5119-5.58163c.3145-.26956.788-.23314 1.0576.08135.2695.3145.2331.78797-.0814 1.05754l-7 6.00004c-.2809.2407-.6953.2407-.9762 0l-6.99998-6.00004c-.31449-.26957-.35092-.74305-.08135-1.05754z"
          fill="#ffffff" fill-rule="evenodd"/>
</svg>

<?xml version="1.0" encoding="UTF-8" standalone="no"?>
<svg width="100%" height="100%" viewBox="0 0 800 800" version="1.1" xmlns="http://www.w3.org/2000/svg"
     style="fill-rule:evenodd;clip-rule:evenodd;stroke-linejoin:round;stroke-miterlimit:2;">
    <g transform="matrix(33.3333,0,0,33.3333,0,0)">
        <path fill="black" d="M4.431,8.512C4.7,8.197 5.174,8.161 5.488,8.431L12,14.012L18.512,8.431C18.826,8.161 19.3,8.197 19.57,8.512C19.839,8.826 19.803,9.3 19.488,9.569L12.488,15.57C12.207,15.81 11.793,15.81 11.512,15.57L4.512,9.569C4.197,9.3 4.161,8.826 4.431,8.512Z"/>
    </g>
</svg>
